svgs/regular/badge.svg

<svg xmlns="http://www.w3.org/2000/svg" viewBox="0 0 512 512"><!-- Font Awesome Pro 6.0.0-alpha2 by @fontawesome - https://fontawesome.com License - https://fontawesome.com/license (Commercial License) --><path d="M256 512C219.75 512 187.75 493.375 169.25 465.25C136.25 472.125 100.625 462.75 75 437C49.375 411.375 39.875 375.625 46.75 342.75C18.75 324.25 0 292.25 0 256S18.625 187.75 46.75 169.25C39.875 136.5 49.25 100.625 75 75C100.625 49.375 136.375 39.875 169.25 46.75C187.75 18.75 219.75 0 256 0S324.25 18.75 342.75 46.75C375.5 39.875 411.375 49.25 437 75C462.625 100.625 472.125 136.375 465.25 169.25C493.25 187.625 512 219.5 512 256C512 292.25 493.375 324.25 465.25 342.75C472.125 375.5 462.75 411.375 437 437C411.375 462.625 375.75 472.125 342.75 465.25C324.25 493.25 292.375 512 256 512ZM194.75 403.75C201.25 421.25 210.75 464 256 464C299.875 464 309.5 424.375 317.25 403.75C347.75 417.625 375 431.125 403 403.125C433.999 372.125 412.75 337.25 403.75 317.25C421.125 310.75 463.875 301.375 463.875 256.125C463.875 212.25 424.25 202.625 403.75 194.875C411.375 178 435 141.125 403 109.125C372 78.125 337.125 99.25 317.25 108.375C310.75 90.75 301.25 48 256 48C212.125 48 202.5 87.625 194.75 108.25C177.875 100.5 141 76.875 109 108.875C77.999 139.875 99.25 174.75 108.25 194.75C90.75 201.25 48 210.75 48 256C48 299.875 87.625 309.5 108.25 317.25C100.5 334.125 76.875 371 108.875 403C139.875 434 173.75 413.375 194.75 403.75Z"/></svg>

<svg xmlns="http://www.w3.org/2000/svg" viewBox="0 0 512 512"><!--! Font Awesome Pro 6.0.0-alpha3 by @fontawesome - https://fontawesome.com License - https://fontawesome.com/license (Commercial License) --><path d="M256 512c-36.25 0-68.25-18.62-86.75-46.75c-33 6.875-68.63-2.5-94.25-28.25c-25.62-25.62-35.12-61.38-28.25-94.25C18.75 324.2 0 292.2 0 256s18.62-68.25 46.75-86.75C39.88 136.5 49.25 100.6 75 75c25.62-25.62 61.38-35.12 94.25-28.25C187.8 18.75 219.8 0 256 0s68.25 18.75 86.75 46.75C375.5 39.88 411.4 49.25 437 75c25.62 25.62 35.13 61.38 28.25 94.25C493.3 187.6 512 219.5 512 256c0 36.25-18.62 68.25-46.75 86.75c6.875 32.75-2.5 68.62-28.25 94.25c-25.62 25.62-61.25 35.13-94.25 28.25C324.2 493.2 292.4 512 256 512zM194.8 403.8C201.2 421.2 210.8 464 256 464c43.88 0 53.5-39.63 61.25-60.25c30.5 13.87 57.75 27.37 85.75-.625c30.1-31 9.75-65.88 .75-85.88c17.37-6.5 60.12-15.87 60.12-61.12c0-43.88-39.63-53.5-60.12-61.25C411.4 178 435 141.1 403 109.1c-31-31-65.88-9.875-85.75-.75C310.8 90.75 301.2 48 256 48c-43.88 0-53.5 39.62-61.25 60.25C177.9 100.5 141 76.88 109 108.9C77.1 139.9 99.25 174.8 108.2 194.8C90.75 201.2 48 210.8 48 256c0 43.88 39.62 53.5 60.25 61.25C100.5 334.1 76.88 371 108.9 403C139.9 434 173.8 413.4 194.8 403.8z"/></svg>
